icons/solid/refresh.svg

<svg width="24" height="24" viewBox="0 0 24 24" fill="none" xmlns="http://www.w3.org/2000/svg">
<path fill-rule="evenodd" clip-rule="evenodd" d="M17.2173 5.33309C17.5857 5.74461 17.5506 6.37681 17.1391 6.74513C16.7276 7.11346 16.0954 7.07844 15.7271 6.66691C14.8101 5.6424 13.4807 5 12 5C9.23857 5 7 7.23858 7 10L9 10C9.40446 10 9.7691 10.2436 9.92388 10.6173C10.0787 10.991 9.9931 11.4211 9.70711 11.7071L6.70711 14.7071C6.31658 15.0976 5.68342 15.0976 5.29289 14.7071L2.29289 11.7071C2.00689 11.4211 1.92134 10.991 2.07612 10.6173C2.2309 10.2436 2.59554 10 3 10L5 10C5 6.13401 8.134 3 12 3C14.0733 3 15.937 3.9026 17.2173 5.33309ZM21.7071 12.2929C21.9931 12.5789 22.0787 13.009 21.9239 13.3827C21.7691 13.7564 21.4045 14 21 14H19L19 14.0021C18.9988 17.8671 15.8653 21 12 21C9.92674 21 8.06297 20.0974 6.78265 18.6669C6.41432 18.2554 6.44934 17.6232 6.86087 17.2549C7.2724 16.8865 7.90459 16.9216 8.27292 17.3331C9.18988 18.3576 10.5193 19 12 19C14.7614 19 17 16.7614 17 14H15C14.5955 14 14.2309 13.7564 14.0761 13.3827C13.9213 13.009 14.0069 12.5789 14.2929 12.2929L17.2929 9.29289C17.6834 8.90237 18.3166 8.90237 18.7071 9.29289L21.7071 12.2929Z" fill="currentColor"/>
</svg>

<svg width="24" height="24" fill="none" xmlns="http://www.w3.org/2000/svg"><path fill-rule="evenodd" clip-rule="evenodd" d="M17.217 5.333a1 1 0 11-1.49 1.334A5 5 0 007 10h2a1 1 0 01.707 1.707l-3 3a1 1 0 01-1.414 0l-3-3A1 1 0 013 10h2a7 7 0 0112.217-4.667zm4.49 6.96A1 1 0 0121 14h-2v.002a7 7 0 01-12.217 4.665 1 1 0 111.49-1.334A5 5 0 0017 14h-2a1 1 0 01-.707-1.707l3-3a1 1 0 011.414 0l3 3z" fill="currentColor"/></svg>
